X:1
T: Deil Stick da Minister
C:
R:Reel
Q: 232
K:D
M:4/4
L:1/8
|:Ad fd ee ce|fd fd g2 eg|fd fd e2 ce|d2 ed cA A2|
Ad fd ee ce|fd fd g2 eg|fd fd e2 ce|d2 ed cA A2|
fg af ga gf|e=c gc ec gc|fg af ge ce|d2 ed cA A2|
fg af ga gf|e=c gc ec gc|fg af ge ce|d2 ed cA A2:|
